src/images/partner1.svg

<svg fill="none" height="39" viewBox="0 0 184 39" width="184" xmlns="http://www.w3.org/2000/svg" xmlns:xlink="http://www.w3.org/1999/xlink"><mask id="a" height="39" width="38" x="0" y="0"><path clip-rule="evenodd" d="m0 .400391h37.95v37.949909h-37.95z" fill="#fff" fill-rule="evenodd"/></mask><mask id="b" height="16" width="8" x="176" y="12"><path clip-rule="evenodd" d="m176.09 12.9238h7.336v14.5475h-7.336z" fill="#fff" fill-rule="evenodd"/></mask><g mask="url(#a)"><path clip-rule="evenodd" d="m14.168 9.63489 3.795 7.71651c0 .1265.1265.253.253.3795s.1265.253.253.506l.1265.1265v.1265c.1265.253.1265.3795.253.6325.1265.1265.1265.3795.253.506.1265-.3795.3795-.6325.506-1.1385.1265-.3795.3795-.759.6325-1.1385l3.795-7.71651h2.783l-6.578 12.39701v7.843h-2.53v-7.9695l-6.578-12.27051zm-14.168 28.71551h37.95v-37.950009h-37.95z" fill="#000" fill-rule="evenodd"/></g><g clip-rule="evenodd" fill="#000" fill-rule="evenodd"><path d="m55.5335 25.4473c-2.53 0-4.1745-1.1385-5.1865-3.542-.3795-1.012-.6325-2.4035-.6325-4.048 0-2.1505.253-3.795.759-5.06.8855-2.1505 2.53-3.289 4.6805-3.289 1.3915 0 2.53.506 3.6685 1.265l1.265-1.518c-1.265-1.012-2.9095-1.518-4.807-1.518-2.277 0-4.1745 1.012-5.566 2.6565-1.518 1.8975-2.277 4.1745-2.277 7.084s.6325 5.313 2.1505 7.084c1.518 1.8975 3.4155 2.783 5.6925 2.783 1.8975 0 3.6685-.506 5.313-1.518l-1.265-1.6445c-1.1385.8855-2.4035 1.265-3.795 1.265z"/><path d="m71.9777 20.7668c0 1.265-.1265 2.277-.3795 3.036-.506 1.3915-1.518 2.1505-3.036 2.1505-1.265 0-2.1505-.506-2.783-1.3915s-.8855-2.4035-.8855-4.554c0-1.6445.1265-2.9095.6325-3.6685.6325-1.012 1.518-1.518 2.9095-1.518s2.277.6325 2.9095 1.771c.506.8855.759 2.277.6325 4.1745zm-3.542-7.843c-1.771 0-3.1625.759-4.301 2.024s-1.6445 3.036-1.6445 5.313.506 4.1745 1.6445 5.4395c1.1385 1.3915 2.53 2.024 4.4275 2.024 1.518 0 2.783-.506 3.795-1.3915 1.3915-1.265 2.1505-3.289 2.1505-5.819 0-2.1505-.3795-3.9215-1.265-5.1865-1.1385-1.6445-2.783-2.4035-4.807-2.4035z"/><path d="m92.5983 12.9238c-1.518 0-2.9095.759-4.4275 2.277-.1265-.253-.3795-.6325-.506-.8855-.6325-.8855-1.6445-1.3915-2.783-1.3915-.759 0-1.518.253-2.4035.759-.759.3795-1.265.8855-1.771 1.3915v-.1265c0-.6325-.1265-1.3915-.506-2.024l-2.1505.506c.3795.8855.506 2.024.506 3.4155v10.373h2.1505v-10.373c1.3915-1.265 2.53-1.8975 3.542-1.8975.6325 0 1.012.1265 1.3915.506.253.253.3795.8855.3795 1.771v9.867h2.4035v-10.2465l.253-.253c.6325-.506 1.1385-.8855 1.3915-1.1385.6325-.506 1.3915-.759 2.024-.759 1.1385 0 1.771.6325 1.771 2.024v10.373h2.277v-10.4995c0-1.012-.3795-1.8975-1.012-2.6565-.6325-.6325-1.518-1.012-2.53-1.012z"/><path d="m108.664 24.4356c-.506.8855-1.393 1.265-2.53 1.265-1.393 0-2.53-.506-3.416-1.6445v-7.2105c.253-.3795.633-.759 1.012-1.012.758-.6325 1.644-.8855 2.404-.759 1.265 0 2.149.3795 2.656 1.1385.633.759.886 2.024.886 3.795 0 2.024-.38 3.4155-1.012 4.4275zm-1.898-11.385c-1.392 0-2.783.6325-4.048 1.8975v-1.518-3.1625c0-1.39151-.127-2.53001-.379-3.54201l-2.278.506c.38.6325.507 1.771.632 3.28901v13.2825c0 1.771-.125 2.9095-.379 3.542h2.151c.126-.3795.253-.8855.379-1.518.379.506.886.8855 1.644 1.265.76.3795 1.393.506 2.151.506 1.644 0 3.037-.6325 4.049-2.024 1.011-1.3915 1.518-3.1625 1.518-5.4395 0-2.1505-.507-3.9215-1.518-5.1865-.887-1.265-2.277-1.8975-3.922-1.8975z"/><path d="m116 27.2183h2.277v-14.2945l-2.277.3795z"/><path d="m117.265 7.23145c-.506 0-.885.1265-1.265.506-.379.3795-.506.759-.506 1.265s.127.8855.506 1.26495c.38.3795.759.506 1.265.506.505 0 .886-.1265 1.265-.506.38-.37945.505-.75895.505-1.26495s-.125-.8855-.505-1.265c-.379-.3795-.76-.506-1.265-.506z"/><path d="m131.687 13.4298c-.633-.3795-1.265-.506-2.024-.506-1.518 0-3.036.759-4.428 2.1505 0-.759-.125-1.3915-.506-2.1505l-2.149.6325c.252.6325.505 1.012.505 1.3915.128.253.128.8855.128 1.8975v10.373h2.149v-10.373c.506-.506 1.138-1.012 1.897-1.3915.761-.3795 1.518-.6325 2.026-.6325.632 0 1.137.253 1.518.6325.379.3795.504 1.1385.504 2.277v9.4875h2.151v-10.626c0-.6325-.125-1.1385-.378-1.6445-.255-.6325-.761-1.1385-1.393-1.518z"/><path d="m145.222 23.8028c-.759 1.3915-1.898 2.1505-3.416 2.277-1.644 0-2.403-.8855-2.403-2.53 0-1.012.254-1.771.759-2.277.76-.759 2.025-1.1385 4.048-1.1385h1.139zm2.15 1.265c-.125-.3795-.125-.8855-.125-1.6445v-.6325l.125-4.554v-.759c0-1.1385 0-1.8975-.253-2.4035-.632-1.3915-1.897-2.1505-3.921-2.1505s-3.922.6325-5.819 1.8975l1.138 1.518c.633-.3795 1.14-.759 1.518-1.012 1.012-.3795 1.898-.6325 2.657-.6325.885 0 1.392.253 1.897.759.38.253.506 1.012.506 2.1505v1.012h-1.011c-2.278 0-4.175.3795-5.44 1.265s-1.898 2.024-1.898 3.6685c0 1.265.381 2.277 1.139 2.9095.885.759 2.024 1.1385 3.415 1.1385 1.392 0 2.784-.6325 4.049-1.8975.252 1.012.885 1.6445 1.898 2.024l1.137-1.518c-.505-.253-.885-.6325-1.012-1.1385z"/><path d="m157.493 15.0739.632-1.771h-3.542c0-1.1385 0-2.53.253-4.04802l-2.277.506v.37952c-.126 1.6445-.253 2.6565-.253 2.9095v.253h-1.771v1.771h1.898v9.614c0 2.1505 1.012 3.1625 3.162 3.1625.886 0 1.645-.1265 2.404-.506l-.253-1.3915c-.38.1265-.886.253-1.392.253-.632 0-1.138-.253-1.391-.506-.253-.3795-.38-.8855-.38-1.6445v-8.9815z"/><path d="m169.637 23.8028c-.505 1.3915-1.517 2.1505-3.035 2.1505-1.265 0-2.152-.506-2.784-1.3915-.633-.8855-.886-2.4035-.886-4.554 0-1.6445.128-2.9095.633-3.6685.632-1.012 1.518-1.518 2.909-1.518 1.393 0 2.279.6325 2.911 1.771.38.8855.633 2.277.633 4.1745 0 1.265-.128 2.277-.381 3.036zm-3.289-10.879c-1.771 0-3.288.759-4.301 2.024-1.137 1.265-1.645 3.036-1.645 5.313s.633 4.1745 1.645 5.4395c1.138 1.3915 2.53 2.024 4.427 2.024 1.518 0 2.783-.506 3.795-1.3915 1.393-1.265 2.151-3.289 2.151-5.819 0-2.1505-.38-3.9215-1.265-5.1865-1.137-1.6445-2.783-2.4035-4.807-2.4035z"/></g><g mask="url(#b)"><path clip-rule="evenodd" d="m182.668 13.0503c-1.518 0-2.783.759-3.923 2.277v-.253c0-.759-.125-1.3915-.505-2.1505l-2.15.6325c.379.759.505 1.771.505 3.036v10.879h2.15v-8.7285c0-.6325.128-1.1385.254-1.518.253-.506.758-.8855 1.265-1.265.506-.3795 1.139-.506 1.644-.506.127 0 .379 0 .632.1265l.887-2.4035c-.254-.1265-.507-.1265-.759-.1265z" fill="#000" fill-rule="evenodd"/></g></svg>

<svg width="184" height="39" viewBox="0 0 184 39" fill="none" xmlns="http://www.w3.org/2000/svg">
<mask id="mask0" mask-type="alpha" maskUnits="userSpaceOnUse" x="0" y="0" width="38" height="39">
<path fill-rule="evenodd" clip-rule="evenodd" d="M0 0.400391H37.95V38.3503H0V0.400391Z" fill="white"/>
</mask>
<g mask="url(#mask0)">
<path fill-rule="evenodd" clip-rule="evenodd" d="M14.168 9.63489L17.963 17.3514C17.963 17.4779 18.0895 17.6044 18.216 17.7309C18.3425 17.8574 18.3425 17.9839 18.469 18.2369L18.5955 18.3634V18.4899C18.722 18.7429 18.722 18.8694 18.8485 19.1224C18.975 19.2489 18.975 19.5019 19.1015 19.6284C19.228 19.2489 19.481 18.9959 19.6075 18.4899C19.734 18.1104 19.987 17.7309 20.24 17.3514L24.035 9.63489H26.818L20.24 22.0319V29.8749H17.71V21.9054L11.132 9.63489H14.168ZM0 38.3504H37.95V0.400391H0V38.3504Z" fill="black"/>
</g>
<path fill-rule="evenodd" clip-rule="evenodd" d="M55.5335 25.4473C53.0035 25.4473 51.359 24.3088 50.347 21.9053C49.9675 20.8933 49.7145 19.5018 49.7145 17.8573C49.7145 15.7068 49.9675 14.0623 50.4735 12.7973C51.359 10.6468 53.0035 9.5083 55.154 9.5083C56.5455 9.5083 57.684 10.0143 58.8225 10.7733L60.0875 9.2553C58.8225 8.2433 57.178 7.7373 55.2805 7.7373C53.0035 7.7373 51.106 8.7493 49.7145 10.3938C48.1965 12.2913 47.4375 14.5683 47.4375 17.4778C47.4375 20.3873 48.07 22.7908 49.588 24.5618C51.106 26.4593 53.0035 27.3448 55.2805 27.3448C57.178 27.3448 58.949 26.8388 60.5935 25.8268L59.3285 24.1823C58.19 25.0678 56.925 25.4473 55.5335 25.4473Z" fill="black"/>
<path fill-rule="evenodd" clip-rule="evenodd" d="M71.9777 20.7668C71.9777 22.0318 71.8512 23.0438 71.5982 23.8028C71.0922 25.1943 70.0802 25.9533 68.5622 25.9533C67.2972 25.9533 66.4117 25.4473 65.7792 24.5618C65.1467 23.6763 64.8937 22.1583 64.8937 20.0078C64.8937 18.3633 65.0202 17.0983 65.5262 16.3393C66.1587 15.3273 67.0442 14.8213 68.4357 14.8213C69.8272 14.8213 70.7127 15.4538 71.3452 16.5923C71.8512 17.4778 72.1042 18.8693 71.9777 20.7668ZM68.4357 12.9238C66.6647 12.9238 65.2732 13.6828 64.1347 14.9478C62.9962 16.2128 62.4902 17.9838 62.4902 20.2608C62.4902 22.5378 62.9962 24.4353 64.1347 25.7003C65.2732 27.0918 66.6647 27.7243 68.5622 27.7243C70.0802 27.7243 71.3452 27.2183 72.3572 26.3328C73.7487 25.0678 74.5077 23.0438 74.5077 20.5138C74.5077 18.3633 74.1282 16.5923 73.2427 15.3273C72.1042 13.6828 70.4597 12.9238 68.4357 12.9238Z" fill="black"/>
<path fill-rule="evenodd" clip-rule="evenodd" d="M92.5983 12.9238C91.0803 12.9238 89.6888 13.6828 88.1708 15.2008C88.0443 14.9478 87.7913 14.5683 87.6648 14.3153C87.0323 13.4298 86.0203 12.9238 84.8818 12.9238C84.1228 12.9238 83.3638 13.1768 82.4783 13.6828C81.7193 14.0623 81.2133 14.5683 80.7073 15.0743V14.9478C80.7073 14.3153 80.5808 13.5563 80.2013 12.9238L78.0508 13.4298C78.4303 14.3153 78.5568 15.4538 78.5568 16.8453V27.2183H80.7073V16.8453C82.0988 15.5803 83.2373 14.9478 84.2493 14.9478C84.8818 14.9478 85.2613 15.0743 85.6408 15.4538C85.8938 15.7068 86.0203 16.3393 86.0203 17.2248V27.0918H88.4238V16.8453L88.6768 16.5923C89.3093 16.0863 89.8153 15.7068 90.0683 15.4538C90.7008 14.9478 91.4598 14.6948 92.0923 14.6948C93.2308 14.6948 93.8633 15.3273 93.8633 16.7188V27.0918H96.1403V16.5923C96.1403 15.5803 95.7608 14.6948 95.1283 13.9358C94.4958 13.3033 93.6103 12.9238 92.5983 12.9238Z" fill="black"/>
<path fill-rule="evenodd" clip-rule="evenodd" d="M108.664 24.4356C108.158 25.3211 107.271 25.7006 106.134 25.7006C104.741 25.7006 103.604 25.1946 102.718 24.0561V16.8456C102.971 16.4661 103.351 16.0866 103.73 15.8336C104.488 15.2011 105.374 14.9481 106.134 15.0746C107.399 15.0746 108.283 15.4541 108.79 16.2131C109.423 16.9721 109.676 18.2371 109.676 20.0081C109.676 22.0321 109.296 23.4236 108.664 24.4356ZM106.766 13.0506C105.374 13.0506 103.983 13.6831 102.718 14.9481V13.4301V10.2676C102.718 8.87609 102.591 7.73759 102.339 6.72559L100.061 7.23159C100.441 7.86409 100.568 9.00259 100.693 10.5206V23.8031C100.693 25.5741 100.568 26.7126 100.314 27.3451H102.465C102.591 26.9656 102.718 26.4596 102.844 25.8271C103.223 26.3331 103.73 26.7126 104.488 27.0921C105.248 27.4716 105.881 27.5981 106.639 27.5981C108.283 27.5981 109.676 26.9656 110.688 25.5741C111.699 24.1826 112.206 22.4116 112.206 20.1346C112.206 17.9841 111.699 16.2131 110.688 14.9481C109.801 13.6831 108.411 13.0506 106.766 13.0506Z" fill="black"/>
<path fill-rule="evenodd" clip-rule="evenodd" d="M116 27.2183H118.277V12.9238L116 13.3033V27.2183Z" fill="black"/>
<path fill-rule="evenodd" clip-rule="evenodd" d="M117.265 7.23145C116.759 7.23145 116.38 7.35795 116 7.73745C115.621 8.11695 115.494 8.49645 115.494 9.00245C115.494 9.50845 115.621 9.88795 116 10.2674C116.38 10.6469 116.759 10.7734 117.265 10.7734C117.77 10.7734 118.151 10.6469 118.53 10.2674C118.91 9.88795 119.035 9.50845 119.035 9.00245C119.035 8.49645 118.91 8.11695 118.53 7.73745C118.151 7.35795 117.77 7.23145 117.265 7.23145Z" fill="black"/>
<path fill-rule="evenodd" clip-rule="evenodd" d="M131.687 13.4298C131.054 13.0503 130.422 12.9238 129.663 12.9238C128.145 12.9238 126.627 13.6828 125.235 15.0743C125.235 14.3153 125.11 13.6828 124.729 12.9238L122.58 13.5563C122.832 14.1888 123.085 14.5683 123.085 14.9478C123.213 15.2008 123.213 15.8333 123.213 16.8453V27.2183H125.362V16.8453C125.868 16.3393 126.5 15.8333 127.259 15.4538C128.02 15.0743 128.777 14.8213 129.285 14.8213C129.917 14.8213 130.422 15.0743 130.803 15.4538C131.182 15.8333 131.307 16.5923 131.307 17.7308V27.2183H133.458V16.5923C133.458 15.9598 133.333 15.4538 133.08 14.9478C132.825 14.3153 132.319 13.8093 131.687 13.4298Z" fill="black"/>
<path fill-rule="evenodd" clip-rule="evenodd" d="M145.222 23.8028C144.463 25.1943 143.324 25.9533 141.806 26.0798C140.162 26.0798 139.403 25.1943 139.403 23.5498C139.403 22.5378 139.657 21.7788 140.162 21.2728C140.922 20.5138 142.187 20.1343 144.21 20.1343H145.349L145.222 23.8028ZM147.372 25.0678C147.247 24.6883 147.247 24.1823 147.247 23.4233V22.7908L147.372 18.2368V17.4778C147.372 16.3393 147.372 15.5803 147.119 15.0743C146.487 13.6828 145.222 12.9238 143.198 12.9238C141.174 12.9238 139.276 13.5563 137.379 14.8213L138.517 16.3393C139.15 15.9598 139.657 15.5803 140.035 15.3273C141.047 14.9478 141.933 14.6948 142.692 14.6948C143.577 14.6948 144.084 14.9478 144.589 15.4538C144.969 15.7068 145.095 16.4658 145.095 17.6043V18.6163H144.084C141.806 18.6163 139.909 18.9958 138.644 19.8813C137.379 20.7668 136.746 21.9053 136.746 23.5498C136.746 24.8148 137.127 25.8268 137.885 26.4593C138.77 27.2183 139.909 27.5978 141.3 27.5978C142.692 27.5978 144.084 26.9653 145.349 25.7003C145.601 26.7123 146.234 27.3448 147.247 27.7243L148.384 26.2063C147.879 25.9533 147.499 25.5738 147.372 25.0678Z" fill="black"/>
<path fill-rule="evenodd" clip-rule="evenodd" d="M157.493 15.0739L158.125 13.3029H154.583C154.583 12.1644 154.583 10.7729 154.836 9.25488L152.559 9.76088V10.1404C152.433 11.7849 152.306 12.7969 152.306 13.0499V13.3029H150.535V15.0739H152.433V24.6879C152.433 26.8384 153.445 27.8504 155.595 27.8504C156.481 27.8504 157.24 27.7239 157.999 27.3444L157.746 25.9529C157.366 26.0794 156.86 26.2059 156.354 26.2059C155.722 26.2059 155.216 25.9529 154.963 25.6999C154.71 25.3204 154.583 24.8144 154.583 24.0554V15.0739H157.493Z" fill="black"/>
<path fill-rule="evenodd" clip-rule="evenodd" d="M169.637 23.8028C169.132 25.1943 168.12 25.9533 166.602 25.9533C165.337 25.9533 164.45 25.4473 163.818 24.5618C163.185 23.6763 162.932 22.1583 162.932 20.0078C162.932 18.3633 163.06 17.0983 163.565 16.3393C164.197 15.3273 165.083 14.8213 166.474 14.8213C167.867 14.8213 168.753 15.4538 169.385 16.5923C169.765 17.4778 170.018 18.8693 170.018 20.7668C170.018 22.0318 169.89 23.0438 169.637 23.8028ZM166.348 12.9238C164.577 12.9238 163.06 13.6828 162.047 14.9478C160.91 16.2128 160.402 17.9838 160.402 20.2608C160.402 22.5378 161.035 24.4353 162.047 25.7003C163.185 27.0918 164.577 27.7243 166.474 27.7243C167.992 27.7243 169.257 27.2183 170.269 26.3328C171.662 25.0678 172.42 23.0438 172.42 20.5138C172.42 18.3633 172.04 16.5923 171.155 15.3273C170.018 13.6828 168.372 12.9238 166.348 12.9238Z" fill="black"/>
<mask id="mask1" mask-type="alpha" maskUnits="userSpaceOnUse" x="176" y="12" width="8" height="16">
<path fill-rule="evenodd" clip-rule="evenodd" d="M176.09 12.9238H183.426V27.4713H176.09V12.9238Z" fill="white"/>
</mask>
<g mask="url(#mask1)">
<path fill-rule="evenodd" clip-rule="evenodd" d="M182.668 13.0503C181.15 13.0503 179.885 13.8093 178.745 15.3273V15.0743C178.745 14.3153 178.62 13.6828 178.24 12.9238L176.09 13.5563C176.469 14.3153 176.595 15.3273 176.595 16.5923V27.4713H178.745V18.7428C178.745 18.1103 178.873 17.6043 178.999 17.2248C179.252 16.7188 179.757 16.3393 180.264 15.9598C180.77 15.5803 181.403 15.4538 181.908 15.4538C182.035 15.4538 182.287 15.4538 182.54 15.5803L183.427 13.1768C183.173 13.0503 182.92 13.0503 182.668 13.0503Z" fill="black"/>
</g>
</svg>
